X:5723
T:Gan Ainm
R:reel
S:
H:
N:
D:Milltown Session
Z:Adrian Scahill
M:4/4
L:1/8
K:C
DEFA d2cA|GEED EFGc|Addc dfed|cAGE CDEC|\
DEFA d2cA|GEED EFGc|Addc dfed|cAGE EDD2:||\
aged c3d|cAGc AcGc|agec d2ed|cAGE EDD2|\
ageg aged|c2cB cAGE|F3E FGAB|cAGE EDD2:||


